!!!COM: Honegger, Arthur
!!!OTL: Une Cantate de Noël (A Christmas Cantata) for Baritone, Children's Choir, Mixed Choir, Organ and Orchestra
**kern	**kern	**kern	**kern	**kern	**kern	**kern	**kern	**kern	**kern	**kern	**kern	**kern	**kern	**kern	**kern	**kern	**kern	**kern	**kern	**kern	**kern	**kern
*staff23	*staff22	*staff21	*staff20	*staff19	*staff18	*staff17	*staff16	*staff15	*staff14	*staff13	*staff12	*staff11	*staff10	*staff9	*staff8	*staff7	*staff6	*staff5	*staff4	*staff3	*staff2	*staff1
*I"Contrabass	*I"Violoncello	*I"Viola	*I"Violin II	*I"Violin I	*	*part3	*part2	*part1	*I"Harp	*	*I"Trombone III.	*I"Trombone II.	*I"Trombone I.	*I"Trumpet II.III. in C	*I"Trumpet I in C	*I"Horn III.IV. in F	*I"Horn I.II. in F	*I"Bassoon I.II.	*I"Clarinet I.II. in Bb	*I"Oboe I.II.	*I"Flute I.II.	*I"Piccolo
*I'Cb.	*I'Vc.	*I'Vla.	*I'Vln. II	*I'Vln. I	*	*staff3	*staff2	*staff1	*I'Hp.	*	*I'3.Tbn.	*I'2.Tbn.	*I'1.Tbn.	*I'2.3.Tpt.	*I'1.Tpt.	*I'3.4.Hn.	*I'1.2.Hn.	*I'1.2.Bsn.	*I'1.2.Cl.	*I'1.2.Ob.	*I'1.2.Fl.	*I'Picc.
*clefF4	*clefF4	*clefC3	*clefG2	*clefG2	*I"Bass	*I"Tenor	*I"Alto	*I"Soprano	*clefG2	*clefG2	*clefF4	*clefC4	*clefC4	*clefG2	*clefG2	*clefG2	*clefG2	*clefF4	*clefG2	*clefG2	*clefG2	*clefG2
*	*	*	*	*	*I'B.	*I'T.	*I'A.	*I'S.	*	*	*	*	*	*	*	*ITrd4c7	*ITrd4c7	*	*ITrd1c2	*	*	*ITrd0c0
*k[]	*k[]	*k[]	*k[]	*k[]	*clefF4	*clefGv2	*clefG2	*clefG2	*k[]	*k[]	*k[]	*k[]	*k[]	*k[]	*k[]	*k[b-]	*k[b-]	*k[]	*k[b-e-]	*k[]	*k[]	*k[]
*	*	*	*	*	*k[]	*k[]	*k[]	*k[]	*	*	*	*	*	*	*	*	*	*	*	*	*	*
*M4/4	*M4/4	*M4/4	*M4/4	*M4/4	*M4/4	*M4/4	*M4/4	*M4/4	*M4/4	*M4/4	*M4/4	*M4/4	*M4/4	*M4/4	*M4/4	*M4/4	*M4/4	*M4/4	*M4/4	*M4/4	*M4/4	*M4/4
*	*	*	*	*	*rscale:1/2	*rscale:1/2	*rscale:1/2	*rscale:1/2	*	*	*	*	*	*	*	*	*	*	*	*	*	*
=1	=1	=1	=1	=1	=1	=1	=1	=1	=1	=1	=1	=1	=1	=1	=1	=1	=1	=1	=1	=1	=1	=1
!LO:TX:b:t=Arco	!	!	!	!LO:TX:b:t=[f marcato]	!	!	!	!	!	!	!	!	!	!	!	!	!	!	!	!	!	!
!LO:TX:b:t=[f marcato]	!LO:TX:b:t=[f marcato]	!LO:TX:b:t=[f marcato]	!LO:TX:b:t=[f marcato]	!LO:TX:b:t=Doppio Movimento q = 63	!	!	!	!	!	!	!	!LO:TX:b:t=[f marcato]	!LO:TX:b:t=[f marcato]	!LO:TX:b:t=[f marcato]	!LO:TX:b:t=[f marcato]	!LO:TX:b:t=[f marcato]	!LO:TX:b:t=[f marcato]	!LO:TX:b:t=[f marcato]	!LO:TX:b:t=[f marcato]	!LO:TX:b:t=[f marcato]	!LO:TX:b:t=[f marcato]	!LO:TX:b:t=Doppio Movimento q = 63
2GG	(16GG^LL	8B-X 8d 8a	8d 8b-X	1r	2r	2r	2r	2r	1r	1r	8d	4B-X	4a	1r	1r	1r	1r	2GG	1r	1r	1r	1r
.	16AA	.	.	.	.	.	.	.	.	.	.	.	.	.	.	.	.	.	.	.	.	.
.	16BB-XJJ)	4r	4r	.	.	.	.	.	.	.	8r	.	.	.	.	.	.	.	.	.	.	.
.	16r	.	.	.	.	.	.	.	.	.	.	.	.	.	.	.	.	.	.	.	.	.
.	(16GG^LL	.	.	.	.	.	.	.	.	.	8GG'	4g	4r	.	.	.	.	.	.	.	.	.
.	16AA	.	.	.	.	.	.	.	.	.	.	.	.	.	.	.	.	.	.	.	.	.
.	16BB-JJ)	8r	8r	.	.	.	.	.	.	.	8r	.	.	.	.	.	.	.	.	.	.	.
.	16r	.	.	.	.	.	.	.	.	.	.	.	.	.	.	.	.	.	.	.	.	.
!	!	!	!	!	!	!	!	!LO:TX:b:t=f unisono molto sostenuto	!	!	!	!	!	!	!	!	!	!	!	!	!	!
!	!	!	!	!	!	!LO:TX:b:t=f unisono molto sostenuto	!LO:TX:b:B:t=(con Organo)	!LO:TX:b:B:t=Istesso Tempo q = 63	!	!	!	!	!	!	!	!	!	!	!	!	!	!
2FF	(16GG^LL	4r	2r	.	([1.B-X\	([1.b-X\	([1.b-X\	([1.b-X\	.	.	8GG'	4r	2r	.	.	.	.	2FF	.	.	.	.
.	16AA	.	.	.	.	.	.	.	.	.	.	.	.	.	.	.	.	.	.	.	.	.
.	16BB-JJ)	.	.	.	.	.	.	.	.	.	8r	.	.	.	.	.	.	.	.	.	.	.
.	16r	.	.	.	.	.	.	.	.	.	.	.	.	.	.	.	.	.	.	.	.	.
*	*	*	*	*	*	*	*	*	*	*	*	*clefF4	*	*	*	*	*	*	*	*	*	*
.	(8C#X'L	(8C#X'L	.	.	.	.	.	.	.	.	8C#X'	(8C#X'L	.	.	.	.	.	.	.	.	.	.
.	8D'J)	8D'J)	.	.	.	.	.	.	.	.	8r	8D'J)	.	.	.	.	.	.	.	.	.	.
=	=	=	=	=	=-	=-	=-	=-	=	=	=	=	=	=	=	=	=	=	=	=	=	=
2EE	4F#X	(16G^LL	2r	1r	.	.	.	.	1r	1r	8G'L	4F#X	2r	1r	1r	1r	1r	2EE	1r	1r	1r	1r
.	.	16A	.	.	.	.	.	.	.	.	.	.	.	.	.	.	.	.	.	.	.	.
.	.	16B-XJJ)	.	.	.	.	.	.	.	.	8r	.	.	.	.	.	.	.	.	.	.	.
.	.	16r	.	.	.	.	.	.	.	.	.	.	.	.	.	.	.	.	.	.	.	.
.	4Fn	(16G^LL	.	.	.	.	.	.	.	.	8G'J	4Fn	.	.	.	.	.	.	.	.	.	.
.	.	16A	.	.	.	.	.	.	.	.	.	.	.	.	.	.	.	.	.	.	.	.
.	.	16B-JJ)	.	.	.	.	.	.	.	.	8r	.	.	.	.	.	.	.	.	.	.	.
.	.	16r	.	.	.	.	.	.	.	.	.	.	.	.	.	.	.	.	.	.	.	.
2FF	4E	(16G^LL	4r	.	.	.	.	.	.	.	8G'	4E	4r	.	.	.	.	2FF	.	.	.	.
.	.	16A	.	.	.	.	.	.	.	.	.	.	.	.	.	.	.	.	.	.	.	.
.	.	16B-JJ)	.	.	.	.	.	.	.	.	4r	.	.	.	.	.	.	.	.	.	.	.
.	.	16r	.	.	.	.	.	.	.	.	.	.	.	.	.	.	.	.	.	.	.	.
.	4E-X	(8C#X'L	(8c#X'L	.	.	.	.	.	.	.	.	4E-X	8c#X'L	.	.	.	.	.	.	.	.	.
.	.	8D'J)	8d'J)	.	.	.	.	.	.	.	8r	.	8d'J	.	.	.	.	.	.	.	.	.
!!pagebreak:original
=	=	=	=	=	=	=	=	=	=	=	=	=	=	=	=	=	=	=	=	=	=	=
!	!	!	!	!	!	!	!	!	!	!	!	!	!	!LO:TX:b:t=[Sourdines]	!LO:TX:b:t=Sourdines	!	!	!	!	!	!	!
2EE	2D	(16G^LL	(16G^LL	(16g^LL	2B-]	2b-\]	2b-\]	2b-\]	1r	1r	1r	2D	4f#X	1r	1r	1r	1r	2EE	1r	1r	1r	1r
.	.	16A	16A	16a	.	.	.	.	.	.	.	.	.	.	.	.	.	.	.	.	.	.
.	.	16B-XJJ)	16B-XJJ)	16b-XJJ)	.	.	.	.	.	.	.	.	.	.	.	.	.	.	.	.	.	.
.	.	16r	16r	16r	.	.	.	.	.	.	.	.	.	.	.	.	.	.	.	.	.	.
.	.	(16G^LL	(16G^LL	(16g^LL	.	.	.	.	.	.	.	.	4fn	.	.	.	.	.	.	.	.	.
.	.	16A	16A	16a	.	.	.	.	.	.	.	.	.	.	.	.	.	.	.	.	.	.
.	.	16B-JJ)	16B-JJ)	16b-JJ)	.	.	.	.	.	.	.	.	.	.	.	.	.	.	.	.	.	.
.	.	16r	16r	16r	.	.	.	.	.	.	.	.	.	.	.	.	.	.	.	.	.	.
2D	2DD	(16G^LL	(16G^LL	(16g^LL	1c\	1cc\	1cc\	1cc\	.	.	.	(8E~L	4e	.	.	.	.	2DD	.	.	.	.
.	.	16A	16A	16a	.	.	.	.	.	.	.	.	.	.	.	.	.	.	.	.	.	.
.	.	16B-JJ)	16B-JJ)	16b-JJ)	.	.	.	.	.	.	.	8F~	.	.	.	.	.	.	.	.	.	.
.	.	16r	16r	16r	.	.	.	.	.	.	.	.	.	.	.	.	.	.	.	.	.	.
.	.	(8C#X'L	(8c#X'L	(8cc#X'L	.	.	.	.	.	.	.	8G~	4d#X	.	.	.	.	.	.	.	.	.
.	.	8D'J)	8d'J)	8dd'J)	.	.	.	.	.	.	.	8A~J)	.	.	.	.	.	.	.	.	.	.
=	=	=	=	=	=-	=-	=-	=-	=	=	=	=	=	=	=	=	=	=	=	=	=	=
!	!	!	!	!	!	!	!	!	!	!	!	!	!	!	!	!LO:TX:b:t=à 2	!	!	!	!	!	!
2C#X	2CC#X	(16G^LL	(16g^LL	(16g^LL	.	.	.	.	1r	1r	1r	4B-X	4e	1r	2r	([4B-	1r	2CC#X	1r	2r	2r	1r
.	.	16A	16a	16a	.	.	.	.	.	.	.	.	.	.	.	.	.	.	.	.	.	.
.	.	16B-XJJ)	16b-XJJ)	16b-XJJ)	.	.	.	.	.	.	.	.	.	.	.	.	.	.	.	.	.	.
.	.	16r	16r	16r	.	.	.	.	.	.	.	.	.	.	.	.	.	.	.	.	.	.
.	.	(8c#X'L	(8cc#X'L	(8cc#X'L	.	.	.	.	.	.	.	2r	4e-X	.	.	16B-LL]	.	.	.	.	.	.
.	.	.	.	.	.	.	.	.	.	.	.	.	.	.	.	16A	.	.	.	.	.	.
.	.	8d'J)	8dd'J)	8dd'J)	.	.	.	.	.	.	.	.	.	.	.	16A-X	.	.	.	.	.	.
.	.	.	.	.	.	.	.	.	.	.	.	.	.	.	.	16GJJ)	.	.	.	.	.	.
2D	2DD	(16e^LL	(16ee^LL	(16ee^LL	2B-X\)	2b-X\)	2b-X\)	2b-X\)	.	.	.	.	4d	.	4r	([4B-	.	2DD	.	4r	4r	.
.	.	16f#X	16ff#X	16ff#X	.	.	.	.	.	.	.	.	.	.	.	.	.	.	.	.	.	.
.	.	16gJJ)	16ggJJ)	16ggJJ)	.	.	.	.	.	.	.	.	.	.	.	.	.	.	.	.	.	.
.	.	16r	16r	16r	.	.	.	.	.	.	.	.	.	.	.	.	.	.	.	.	.	.
!	!	!	!	!	!	!	!	!	!	!	!	!	!	!	!LO:TX:b:t=I.	!	!	!	!	!LO:TX:b:t=à 2	!	!
.	.	(16aLL	(16aaLL	(16aaLL	.	.	.	.	.	.	.	4r	4r	.	4a	16B-LL]	.	.	.	(16aaLL	(16aaLL	.
.	.	16b-X	16bb-X	16bb-X	.	.	.	.	.	.	.	.	.	.	.	16A	.	.	.	16bbn	16bbn	.
.	.	16cc	16ccc	16ccc	.	.	.	.	.	.	.	.	.	.	.	16A-X	.	.	.	16ccc	16ccc	.
.	.	16ddJJ)	16dddJJ)	16dddJJ)	.	.	.	.	.	.	.	.	.	.	.	16GJJ)	.	.	.	16dddJJ)	16dddJJ)	.
!!pagebreak:original
=	=	=	=	=	=	=	=	=	=	=	=	=	=	=	=	=	=	=	=	=	=	=
*	*	*	*	*	*	*	*	*	*	*	*	*	*	*^	*	*	*	*	*	*	*	*
2BB-X	2BB-X	8ee	8eee	8eee	(2.A\	(2.A/	(2.a/	(2.a/	12ddL 12ee	12dddL 12eee	1r	1r	1r	2a	4e	4b-X	4B-	1r	2BBB-X	12dd'L 12eeX	12ddd'L	12eee'L	12eee'L
.	.	.	.	.	.	.	.	.	12r	12r	.	.	.	.	.	.	.	.	.	24r	24r	24r	24r
.	.	8r	8r	8r	.	.	.	.	.	.	.	.	.	.	.	.	.	.	.	(24eXK	(24eeK	(24eeK	(24eeK
.	.	.	.	.	.	.	.	.	12ddJ 12ee	12dddJ 12eee	.	.	.	.	.	.	.	.	.	12dd'J) 12ee	12ddd'J)	12eee'J)	12eee'J)
*	*	*	*	*	*	*	*	*	*	*	*	*	*	*	*	*	*	*	*	*Xtuplet	*Xtuplet	*Xtuplet	*Xtuplet
.	.	2r	2r	2r	.	.	.	.	12r	12r	.	.	.	.	4f	4bn	2r	.	.	12f'L	12ff'L	12ff'L	12ff'L
.	.	.	.	.	.	.	.	.	12dd 12ee	12ddd 12eee	.	.	.	.	.	.	.	.	.	12dd' 12ee	12ddd'	12eee'	12eee'
.	.	.	.	.	.	.	.	.	12r	12r	.	.	.	.	.	.	.	.	.	12f'J	12ff'J	12ff'J	12ff'J
2AA	2AA	.	.	.	.	.	.	.	12ddL 12ee	12dddL 12eee	.	.	.	2g	4f#X	4cc	.	.	2AA	12ddL 12ee	12dddL	12eeeL	12eeeL
.	.	.	.	.	.	.	.	.	12r	12r	.	.	.	.	.	.	.	.	.	24r	24r	24r	24r
.	.	.	.	.	.	.	.	.	.	.	.	.	.	.	.	.	.	.	.	(24f#XK	(24ff#XK	(24ff#XK	(24ff#XK
.	.	.	.	.	.	.	.	.	12ddJ 12ee	12dddJ 12eee	.	.	.	.	.	.	.	.	.	12ddJ) 12ee	12dddJ)	12eeeJ)	12eeeJ)
.	.	4r	4r	4r	4G\	4G/	4g/	4g/	12r	12r	.	.	.	.	4g	4cc#X	4r	.	.	12gL	12ggL	12ggL	12ggL
.	.	.	.	.	.	.	.	.	12dd 12ee	12ddd 12eee	.	.	.	.	.	.	.	.	.	12dd 12ee	12ddd	12eee	12eee
.	.	.	.	.	.	.	.	.	12r	12r	.	.	.	.	.	.	.	.	.	12gJ	12ggJ	12ggJ	12ggJ
=	=	=	=	=	=-	=-	=-	=-	=	=	=	=	=	=	=	=	=	=	=	=	=	=	=
2GG	2GG	1r	1r	1r	[1B-X\	[1B-X\	[1b-X\	[1b-X\	12ddL 12ee	12dddL 12eee	1r	1r	1r	4f	4g#X	4dd	1r	1r	2GG	12ddL 12eeX	12dddL	12eeeL	12eeeL
.	.	.	.	.	.	.	.	.	12r	12r	.	.	.	.	.	.	.	.	.	24r	24r	24r	24r
.	.	.	.	.	.	.	.	.	.	.	.	.	.	.	.	.	.	.	.	(24g#XK	(24gg#XK	(24gg#XK	(24gg#XK
.	.	.	.	.	.	.	.	.	12ddJ 12ee	12dddJ 12eee	.	.	.	.	.	.	.	.	.	12ddJ) 12ee	12dddJ)	12eeeJ)	12eeeJ)
.	.	.	.	.	.	.	.	.	12r	12r	.	.	.	4f#X	4a	4dd#X	.	.	.	12aL	12aaL	12aaL	12aaL
.	.	.	.	.	.	.	.	.	12dd 12ee	12ddd 12eee	.	.	.	.	.	.	.	.	.	12dd 12ee	12ddd	12eee	12eee
.	.	.	.	.	.	.	.	.	12r	12r	.	.	.	.	.	.	.	.	.	12aJ	12aaJ	12aaJ	12aaJ
2FF	2FF	.	.	.	.	.	.	.	12ddL 12ee	12dddL 12eee	.	.	.	4gn	4b-X	4ee	.	.	2FF	12ddL 12ee	12dddL	12eeeL	12eeeL
.	.	.	.	.	.	.	.	.	12r	12r	.	.	.	.	.	.	.	.	.	24r	24r	24r	24r
.	.	.	.	.	.	.	.	.	.	.	.	.	.	.	.	.	.	.	.	(24b-K	(24bb-XK	(24bb-XK	(24bb-XK
.	.	.	.	.	.	.	.	.	12ddJ 12ee	12dddJ 12eee	.	.	.	.	.	.	.	.	.	12ddJ) 12ee	12dddJ)	12eeeJ)	12eeeJ)
.	.	.	.	.	.	.	.	.	12r	12r	.	.	.	4g#X	4bn	4ff	.	.	.	12bXL	12bbnL	12bbnL	12bbnL
.	.	.	.	.	.	.	.	.	12dd 12ee	12ddd 12eee	.	.	.	.	.	.	.	.	.	12dd 12ee	12ddd	12eee	12eee
.	.	.	.	.	.	.	.	.	12r	12r	.	.	.	.	.	.	.	.	.	12bJ	12bbJ	12bbJ	12bbJ
*	*	*	*	*	*	*	*	*	*	*	*	*	*	*v	*v	*	*	*	*	*	*	*	*
!!pagebreak:original
=	=	=	=	=	=	=	=	=	=	=	=	=	=	=	=	=	=	=	=	=	=	=
4EE	8GG'L	8G'L	8AuL	8B-XuL 8d	2.B-\]	2.B-\]	2.b-\]	2.b-\]	1r	1r	1r	1r	1r	8a' 8b-X	8dd'	16D^KL 16A	16B-^KL 16d	2EE	1r	1r	1r	1r
.	.	.	.	.	.	.	.	.	.	.	.	.	.	.	.	8D^ 8A	8B-^ 8d	.	.	.	.	.
.	8FF#X'	8F#X'	8r	8r	.	.	.	.	.	.	.	.	.	8r	8r	.	.	.	.	.	.	.
.	.	.	.	.	.	.	.	.	.	.	.	.	.	.	.	16D'Jk 16A	16B-'Jk 16d	.	.	.	.	.
2r	8GG'	8G'	8AuJ	8B-uJ 8d	.	.	.	.	.	.	.	.	.	8a'L 8b-	8dd'L	8D^L 8A	8B-^L 8d	.	.	.	.	.
.	8FFn'J	8Fn'J	8r	8r	.	.	.	.	.	.	.	.	.	16a'L 16b-	16dd'L	16D'L 16A	16B-'L 16d	.	.	.	.	.
.	.	.	.	.	.	.	.	.	.	.	.	.	.	16a'JJ 16b-	16dd'JJ	16D'JJ 16A	16B-'JJ 16d	.	.	.	.	.
.	8EEL	8EL	8Au	8B-u 8d	.	.	.	.	.	.	.	.	.	8a' 8b-	8dd'	8DL 8A	8B-L 8d	2r	.	.	.	.
.	8DDJ	8DJ	8r	8r	.	.	.	.	.	.	.	.	.	8r	8r	8DJ 8A	8B-J 8d	.	.	.	.	.
4r	16CC#X'LL	16C#X'LL	4A^	4B-^ 4f	[4A\	[4A/	[4a/	[4a/	.	.	.	.	.	4a^ 4b-	4ff^	4D^ 4A	4B-^ 4f	.	.	.	.	.
.	16DD'	16D'	.	.	.	.	.	.	.	.	.	.	.	.	.	.	.	.	.	.	.	.
.	16EE'	16E'	.	.	.	.	.	.	.	.	.	.	.	.	.	.	.	.	.	.	.	.
.	16FF'JJ	16F'JJ	.	.	.	.	.	.	.	.	.	.	.	.	.	.	.	.	.	.	.	.
=	=	=	=	=	=-	=-	=-	=-	=	=	=	=	=	=	=	=	=	=	=	=	=	=
!LO:TX:b:t=Pizz.	!	!	!	!	!	!	!	!	!	!	!	!	!	!	!	!	!	!	!	!	!	!
8GL	8GGL	8GL	8AL	8B-XL 8d	4A\]	4A/]	4a/]	4a/]	1r	1r	1r	1r	1r	8a 8b-X	8dd	8DL 8A	8B-L 8d	1r	1r	1r	1r	1r
8F#X	8FF#X	8F#X	8r	8r	.	.	.	.	.	.	.	.	.	8r	8r	16DL 16A	16B-L 16d	.	.	.	.	.
.	.	.	.	.	.	.	.	.	.	.	.	.	.	.	.	16DJJ 16A	16B-JJ 16d	.	.	.	.	.
8G	8GG	8G	8AJ	8B-J 8d	2G\	2G/	2g/	2g/	.	.	.	.	.	16a'LL 16b-	16dd'LL	16DKL 16A	16B-KL 16d	.	.	.	.	.
.	.	.	.	.	.	.	.	.	.	.	.	.	.	16a'JJ 16b-	16dd'JJ	8D 8A	8B- 8d	.	.	.	.	.
8FnJ	8FFnJ	8FnJ	8r	8r	.	.	.	.	.	.	.	.	.	4r	4r	.	.	.	.	.	.	.
.	.	.	.	.	.	.	.	.	.	.	.	.	.	.	.	16DJk 16A	16B-Jk 16d	.	.	.	.	.
8EL	8EEL	8EL	8eL	8B-'L 8d	.	.	.	.	.	.	.	.	.	.	.	8A'L 8B-	8d'L 8e	.	.	.	.	.
8BB-X	8BB-X	8B-XJ	8gJ	8d-X' 8f	.	.	.	.	.	.	.	.	.	8r	8r	8D-X'J 8B-	8d-X'J 8g	.	.	.	.	.
!	!	!	!	!	!	!	!	!	!	!	!	!	!	!	!	!	!LO:TX:b:t=à 2	!	!	!	!	!
8E	8EE	(16aLL	(16aLL	8dn' 8b-X	4F\)	4F/)	4f/)	4f/)	.	.	.	.	.	(8a'L 8b-	(8dd'L	8D'L 8B-	(16aLL	.	.	.	.	.
.	.	16g	16g	.	.	.	.	.	.	.	.	.	.	.	.	.	16g	.	.	.	.	.
8A-XJ	8AA-XJ	16f	16f	8d#X'J 8bn	.	.	.	.	.	.	.	.	.	8f'J) 8bn	8dd#X'J)	8D#X'J 8BX	16f	.	.	.	.	.
.	.	16eJJ)	16e-XJJ)	.	.	.	.	.	.	.	.	.	.	.	.	.	16e-XJJ)	.	.	.	.	.
=	=	=	=	=	=	=	=	=	=	=	=	=	=	=	=	=	=	=	=	=	=	=
*-	*-	*-	*-	*-	*-	*-	*-	*-	*-	*-	*-	*-	*-	*-	*-	*-	*-	*-	*-	*-	*-	*-
